!!!COM: Palestrina, Giovanni Perluigi da
!!!OPR: Aspice Domine
!!!OTL: Agnus II
**kern	**kern	**kern	**kern	**kern	**kern
*Ibass	*Itenor	*Itenor	*Icalto	*Icant	*Icant
!Bassus	!Tenor 2	!Tenor 1	!Altus	!Cantus 2	!Cantus 1
*clefF4	*clefGv2	*clefGv2	*clefG2	*clefG2	*clefG2
*k[]	*k[]	*k[]	*k[]	*k[]	*k[]
*D:dor	*D:dor	*D:dor	*D:dor	*D:dor	*D:dor
*M4/2	*M4/2	*M4/2	*M4/2	*M4/2	*M4/2
=1	=1	=1	=1	=1	=1
0r	0r	0r	0r	0r	0a
=2	=2	=2	=2	=2	=2
0r	0r	0r	0r	1r	1.ee
.	.	.	.	[1a	.
.	.	.	.	.	2ee
=3	=3	=3	=3	=3	=3
0r	0r	0r	0d	1a]	0ff
.	.	.	.	[1dd	.
=4	=4	=4	=4	=4	=4
0r	0r	0r	1.a	2dd]	2.ee
.	.	.	.	2cc	.
.	.	.	.	.	4dd
.	.	.	.	1cc	2ee
.	.	.	2a	.	[2ff
=5	=5	=5	=5	=5	=5
0r	0r	0r	0b-	2.dd	4ff]
.	.	.	.	.	4ee
.	.	.	.	.	4dd
.	.	.	.	4ee	4cc
.	.	.	.	[1ff	[1dd
=6	=6	=6	=6	=6	=6
0r	0A	0r	2.a	2ff]	2dd]
.	.	.	.	4ee	2cc
.	.	.	4b	4dd	.
.	.	.	2cc	[1ee	4a
.	.	.	.	.	4b
.	.	.	[2a	.	4cc
.	.	.	.	.	4a
=7	=7	=7	=7	=7	=7
0r	1.e	1r	2a]	1ee]	1b
.	.	.	2g#	.	.
.	.	[1A	1a	2cc	1a
.	2e	.	.	[2ee	.
=8	=8	=8	=8	=8	=8
0D	0f	1A]	[0a	2ee]	1r
.	.	.	.	4dd	.
.	.	.	.	4cc#	.
.	.	[1d	.	1dd	2r
.	.	.	.	.	2a
=9	=9	=9	=9	=9	=9
1.A	1e	2d]	0a]	1ee	4a
.	.	.	.	.	4b
.	.	2c	.	.	4cc
.	.	.	.	.	4dd
.	[1a	1c	.	1r	2ee
2A	.	.	.	.	[2ff
=10	=10	=10	=10	=10	=10
0B-	2a]	0d	1r	0r	2ff]
.	4g	.	.	.	2ee
.	4f	.	.	.	.
.	2g	.	2r	.	1dd
.	[2f	.	[2d	.	.
=11	=11	=11	=11	=11	=11
1A	2f]	2r	2d]	[0a	1ee
.	2e	1a	2c#	.	.
2r	1d	.	4d	.	1ff
.	.	.	4e	.	.
[2d	.	2d	4f	.	.
.	.	.	4g	.	.
=12	=12	=12	=12	=12	=12
2d]	1A	2.e	2a	0a]	1.ee
4c	.	.	2e	.	.
4B	.	4d	.	.	.
2c#	1r	2e	2r	.	.
2d	.	2f	[2a	.	[2dd
=13	=13	=13	=13	=13	=13
1A	1r	1e	2a]	1.ee	2dd]
.	.	.	2a	.	4cc
.	.	.	.	.	4b
1r	1A	2r	1a	.	1cc#
.	.	[2a	.	2ee	.
=14	=14	=14	=14	=14	=14
0D	1.d	2a]	2.f	0ff	1dd
.	.	2a	.	.	.
.	.	.	4g	.	.
.	.	2.f	2a	.	2r
.	2d	.	[2A	.	2dd
.	.	4g	.	.	.
=15	=15	=15	=15	=15	=15
1.A	1e	0a	4A]	0ee	2cc
.	.	.	4B	.	.
.	.	.	4c	.	4a
.	.	.	4d	.	4b
.	1c	.	1e	.	4cc
.	.	.	.	.	4dd
2A	.	.	.	.	4ee
.	.	.	.	.	4cc
=16	=16	=16	=16	=16	=16
0B-	2.f	2.d	1r	1r	4dd
.	.	.	.	.	4ee
.	.	.	.	.	1ff
.	4e	4e	.	.	.
.	2d	2f	1d	1dd	.
.	2G	2g	.	.	2dd
=17	=17	=17	=17	=17	=17
0A	2.c	0e	1.a	2cc	1ee
.	.	.	.	4a	.
.	4d	.	.	4b	.
.	2e	.	.	4cc	[1a
.	.	.	.	4dd	.
.	[2A	.	2a	4ee	.
.	.	.	.	4cc	.
=18	=18	=18	=18	=18	=18
2.D	2A]	1d	2.f	4dd	0a]
.	.	.	.	4ee	.
.	2.a	.	.	2.ff	.
4E	.	.	8e	.	.
.	.	.	8d	.	.
2.F	.	2A	2c	.	.
.	4g	.	.	4ee	.
.	2f	[2a	2A	2dd	.
4G	.	.	.	.	.
=19	=19	=19	=19	=19	=19
2A	2e	4a]	0a	2cc#	1r
.	.	4g	.	.	.
2D	2d	2f	.	1dd	.
1A	2e	1e	.	.	1ee
.	[2a	.	.	2cc#	.
=20	=20	=20	=20	=20	=20
0D	4a]	1d	2r	1dd	2ff
.	4g	.	.	.	.
.	4f	.	2a	.	2dd
.	4e	.	.	.	.
.	1d	1r	2f	2r	1ff
.	.	.	2d	2a	.
=21	=21	=21	=21	=21	=21
0r	0A	0r	2a	2cc	1ee
.	.	.	2.cc	2a	.
.	.	.	.	1cc	4a
.	.	.	4b	.	4b
.	.	.	[2a	.	4cc
.	.	.	.	.	4dd
=22	=22	=22	=22	=22	=22
0r	0r	1e	2a]	1b	1ee
.	.	.	2g	.	.
.	.	2f	2cc	2a	2r
.	.	2d	[2b-	[2dd	2ff
=23	=23	=23	=23	=23	=23
0r	1r	1f	4b-]	4dd]	2ff
.	.	.	4a	4cc	.
.	.	.	1a	2a	2dd
.	2r	1e	.	1b	2.ee
.	2e	.	2g#	.	.
.	.	.	.	.	4dd
=24	=24	=24	=24	=24	=24
2r	2f	4A	1a	1a	4cc
.	.	4B	.	.	4b
2A	1e	4c	.	.	2a
.	.	4d	.	.	.
2c	.	2e	1r	1r	2g
2A	[2a	[2f	.	.	[2cc
=25	=25	=25	=25	=25	=25
1c	4a]	2f]	0r	0r	4cc]
.	4g	.	.	.	4b
.	2e	2.e	.	.	1a
2B-	2f	.	.	.	.
.	.	4d	.	.	.
2B-	2d	[2d	.	.	2g
=26	=26	=26	=26	=26	=26
1A	1e	2d]	1r	2r	0a
.	.	2c#	.	2ee	.
1D	2d	[1d	2r	2ff	.
.	[2f	.	2a	2dd	.
=27	=27	=27	=27	=27	=27
2r	4f]	1d]	2a	1ff	1r
.	4e	.	.	.	.
2d	2d	.	2b	.	.
2e	2c	1A	1cc	1ee	2r
2c	2A	.	.	.	2ee
=28	=28	=28	=28	=28	=28
1d	1a	2r	2.f	2dd	2ff
.	.	2a	.	2.ff	2dd
.	.	.	4g	.	.
1d	2r	2.f	[1a	.	1ff
.	.	.	.	4ee	.
.	2d	.	.	2dd	.
.	.	4g	.	.	.
=29	=29	=29	=29	=29	=29
1A	2e	1a	2a]	2.cc	1ee
.	2c	.	2e	.	.
.	.	.	.	4b	.
1r	1f	1d	2r	1a	2dd
.	.	.	2a	.	[2dd
=30	=30	=30	=30	=30	=30
0r	1e	1g	2b	2r	4dd]
.	.	.	.	.	8cc
.	.	.	.	.	8b
.	.	.	2g	2ee	2cc#
.	1d	2.f	1a	2ff	[1dd
.	.	.	.	2dd	.
.	.	4g	.	.	.
=31	=31	=31	=31	=31	=31
2r	1d	1a	4f	1ff	1dd]
.	.	.	4g	.	.
2d	.	.	4a	.	.
.	.	.	4b	.	.
2e	1A	2r	2cc	1ee	1r
2c	.	2e	2cc	.	.
=32	=32	=32	=32	=32	=32
1d	2r	2f	0a	0dd	1r
.	1a	2d	.	.	.
1d	.	1f	.	.	2r
.	[2d	.	.	.	[2dd
=33	=33	=33	=33	=33	=33
0G	2d]	1g	0b	2r	2dd]
.	1d	.	.	2dd	2.gg
.	.	1g	.	2.gg	.
.	.	.	.	.	4ff
.	[2e	.	.	.	4ee
.	.	.	.	4ff	4dd
=34	=34	=34	=34	=34	=34
2.A	2e]	2r	1r	4ee	2.cc
.	.	.	.	4dd	.
.	2a	2f	.	2.cc	.
4B	.	.	.	.	4dd
2c	2g	2e	2r	.	2ee
.	.	.	.	4b	.
2F	[2f	2f	2cc	2a	2cc
=35	=35	=35	=35	=35	=35
1c	4f]	1g	2cc	1g	2r
.	8e	.	.	.	.
.	8d	.	.	.	.
.	2e	.	2g	.	1cc
[1F	[1f	2.f	1a	2r	.
.	.	.	.	[2cc	[2ff
.	.	8e	.	.	.
.	.	8d	.	.	.
=36	=36	=36	=36	=36	=36
0F]	0f]	2c	0a	2cc]	4ff]
.	.	.	.	.	4ee
.	.	1A	.	2.ff	2dd
.	.	.	.	.	2cc
.	.	.	.	4ee	.
.	.	[2f	.	2dd	[2a
=37	=37	=37	=37	=37	=37
0r	0r	4f]	1f	2cc	4a]
.	.	4e	.	.	4g
.	.	2d	.	1ff	4a
.	.	.	.	.	4b
.	.	1c	1g	.	1cc
.	.	.	.	2ee	.
=38	=38	=38	=38	=38	=38
0d	0f	2r	1f	2.ff	1a
.	.	4d	.	.	.
.	.	4e	.	4ee	.
.	.	4f	[1a	4dd	1r
.	.	4g	.	4cc	.
.	.	[2a	.	2dd	.
=39	=39	=39	=39	=39	=39
1A	0e	2a]	1a]	0ee	0cc
.	.	4g	.	.	.
.	.	4f	.	.	.
1c	.	2e	[1g	.	.
.	.	2c	.	.	.
=40	=40	=40	=40	=40	=40
0G	0g	1.d	1g]	0r	1b
.	.	.	1b-	.	[1dd
.	.	2G	.	.	.
=41	=41	=41	=41	=41	=41
2.D	1.f	1d	0a	0r	1dd]
4E	.	.	.	.	.
4F	.	1A	.	.	[1cc
4G	.	.	.	.	.
4A	[2e	.	.	.	.
4B	.	.	.	.	.
=42	=42	=42	=42	=42	=42
2c	2e]	0r	1g	0r	2cc]
2G	1d	.	.	.	2.b
1A	.	.	2f	.	.
.	.	.	.	.	4a
.	2c#	.	[2e	.	[2a
=43	=43	=43	=43	=43	=43
1B-	1d	0r	4e]	0r	2a]
.	.	.	4d	.	.
.	.	.	1d	.	2g
1A	1e	.	.	.	[1a
.	.	.	2c#	.	.
=44	=44	=44	=44	=44	=44
2r	1d	0d	1d	0ff	1a]
2.D	.	.	.	.	.
.	1r	.	[1a	.	1r
4E	.	.	.	.	.
4F	.	.	.	.	.
4G	.	.	.	.	.
=45	=45	=45	=45	=45	=45
2.A	0r	1c	1a]	0ee	0cc
4B	.	.	.	.	.
2c	.	1e	[1g	.	.
2c	.	.	.	.	.
=46	=46	=46	=46	=46	=46
0G	2r	0d	1g]	0gg	1b
.	1g	.	.	.	.
.	.	.	1b-	.	[1dd
.	2d	.	.	.	.
=47	=47	=47	=47	=47	=47
1D	2.f	2r	2a	1.ff	1dd]
.	.	1d	4f	.	.
.	4e	.	4g	.	.
1r	4f	.	4a	.	[1a
.	4g	.	4b	.	.
.	[2a	2A	[2cc	[2ee	.
=48	=48	=48	=48	=48	=48
0r	2a]	2c	4cc]	2ee]	1a]
.	.	.	4b-	.	.
.	2f	2d	4a	1dd	.
.	.	.	4g	.	.
.	1e	1A	1a	.	1r
.	.	.	.	2cc#	.
=49	=49	=49	=49	=49	=49
0d	2.d	2.a	1f	1dd	0ff
.	4e	4g	.	.	.
.	4f	4f	[1a	1r	.
.	4g	4e	.	.	.
.	[2a	2d	.	.	.
=50	=50	=50	=50	=50	=50
0c	2a]	4A	1a]	0cc	1ee
.	.	4B	.	.	.
.	2.e	4c	.	.	.
.	.	4d	.	.	.
.	.	2.e	[1g	.	[1gg
.	4f	.	.	.	.
.	[2g	.	.	.	.
.	.	4f	.	.	.
=51	=51	=51	=51	=51	=51
1e	2g]	1g	1g]	1b	1gg]
.	2e	.	.	.	.
2d	1f	2r	1b-	1dd	[1ff
[2d	.	4d	.	.	.
.	.	4e	.	.	.
=52	=52	=52	=52	=52	=52
2d]	2d	4f	1a	2dd	2ff]
.	.	4g	.	.	.
2A	2e	2.a	.	1cc	1ee
2c	2A	.	1a	.	.
.	.	4g	.	.	.
2d	[2a	2f	.	2a	[2dd
=53	=53	=53	=53	=53	=53
0A	2a]	0e	1a	2r	2dd]
.	2e	.	.	1ee	4cc
.	.	.	.	.	4b
.	2.a	.	2r	.	1cc#
.	.	.	[2a	2ee	.
.	4g	.	.	.	.
=54	=54	=54	=54	=54	=54
1D	2.f	[0d	2a]	4ff	[0dd
.	.	.	.	4ee	.
.	.	.	2a	4dd	.
.	4e	.	.	4cc	.
[1G	4d	.	2.g	4b-	.
.	4c	.	.	4a	.
.	4B-	.	.	4g	.
.	4A	.	4a	4f#	.
=55	=55	=55	=55	=55	=55
2G]	2G	1d_	2b-	2g	1dd_
2F#	2d	.	2a	2a	.
1G	2.B-	1d_	1g	1b-	1dd_
.	4c	.	.	.	.
=56	=56	=56	=56	=56	=56
[0D	1d	0d]	[0f#	[0a	0dd]
.	1A	.	.	.	.
=57	=57	=57	=57	=57	=57
1D_	[0A	[0d	1f#_	1a_	[0dd
1D_	.	.	1f#_	1a_	.
=58	=58	=58	=58	=58	=58
0D]	0A]	0d]	0f#]	0a]	0dd]
==	==	==	==	==	==
*-	*-	*-	*-	*-	*-
!!!CDT: 1525/^1526/-1594/2/2
!!!OCY: Italia
!!!AGN: Mass (Parody)
!!!AST: renaissance, vocal
!!!ASW: Motet (Jacquet)
!!!PWK: Masses, Book 2
!!!RNB: Cadence finals: A
!!!YOR: Le Opere Complete, v. 4, p. 91
!!!YOO: Rome, Italy: Fratelli Scalera
!!!END: 1992//
!!!EED: John Miller
!!!YEC: Copyright 2000, John Miller
!!!YEN: United States of America
!!!YEM: Rights to all derivative electronic formats reserved.
!!!YEM: Refer to licensing agreement for further details.
!!!YEM: This file must be accompanied by the licensing agreement.
!!!YEM: A copy of the licensing agreement may be found at http://www.music-cog.ohio-state.edu/HumdrumDatabases/Palestrina/license.txt
!!!EMD: converted to Humdrum by Bret Aarden
